X:3766
T:Danish Hornpipe
M:2/4
L:1/16
K:C
G2|c2c2 EGce|geag fedc|dcde gedc|Bcdc BGAB|!
c2c2 EGce|geag fedc|dcde fdBd|c2e2 c2:|!
|:GG|G2BB B2dd|d2gg g2gg|g2g2 d2B2|G2G2 A2B2|!
c2c2 EGce|geag fedc|dcde fdBd|c2e2 c2:|!
